!!!COM: Mozart
!!!OTL: 8 Variationen uber das Lied "Ein Weib ist das herrlichste Ding"
!!!Variation: Variation 4 b
**function	**harm	**kern	**kern
*	*	*clefF4	*clefG2
*	*	*k[b-]	*k[b-]
*M3/4	*M3/4	*M3/4	*M3/4
*F:	*F:	*F:	*F:
4T	4V	4r	4c
=195	=195	=195	=195
2.T	2.I	16r	(4f
.	.	16FFLL	.
.	.	16AA	.
.	.	16CJJ	.
.	.	16FLL	4c)
.	.	16A	.
.	.	16c	.
.	.	16AJJ	.
.	.	16FLL	4f'
.	.	16C	.
.	.	16AA	.
.	.	16FFJJ	.
=196	=196	=196	=196
2.T	2.V	16r	(4g
.	.	16CCLL	.
.	.	16EE	.
.	.	16GGJJ	.
.	.	16CLL	4c)
.	.	16E	.
.	.	16G	.
.	.	16EJJ	.
.	.	16CLL	4g'
.	.	16GG	.
.	.	16EE	.
.	.	16CCJJ	.
=197	=197	=197	=197
4T	4I	16FFLL	(4a
.	.	16AA	.
.	.	16C	.
.	.	16FJJ	.
4T	4vi	16DDLL	4f)
.	.	16FF	.
.	.	16AA	.
.	.	16DJJ	.
*	*	*	*^
4T	4iib	16BBB-LL	4b-	4g
.	.	16DD	.	.
.	.	16GG	.	.
.	.	16BB-JJ	.	.
=198	=198	=198	=198	=198
4T	4Cc	16CCLL	(4a	4f
.	.	16FF	.	.
.	.	16AA	.	.
.	.	16CJJ	.	.
4T	4V	16BBLL	4g)	4e
.	.	16C	.	.
.	.	16D	.	.
.	.	16CJJ	.	.
4T	4V7d	16AALL	4cc	4e
.	.	16BB-	.	.
.	.	16C	.	.
.	.	16BB-JJ	.	.
=199	=199	=199	=199	=199
4T	4Ib	16AALL	(4cc	4f
.	.	16C	.	.
.	.	16F	.	.
.	.	16AAJJ	.	.
4T	4V7c	16GGLL	4b-	4e
.	.	16C	.	.
.	.	16E	.	.
.	.	16GGJJ	.	.
4T	4I	16FFLL	4a)	4f
.	.	16C	.	.
.	.	16F	.	.
.	.	16FFJJ	.	.
=200	=200	=200	=200	=200
2P	2IV	16BB-LL	(4dd	2.d
.	.	16F	.	.
.	.	16D	.	.
.	.	16FJJ	.	.
.	.	16BB-LL	4b-	.
.	.	16F#	.	.
.	.	16D	.	.
.	.	16F#JJ	.	.
4P	4iib	16BB-LL	4g)	.
.	.	16G	.	.
.	.	16D	.	.
.	.	16GJJ	.	.
*	*	*	*v	*v
=201	=201	=201	=201
4D	4Cc	16CLL	(8.fL
.	.	16c	.
.	.	16A	.
.	.	16cJJ	32eLL
.	.	.	32fJJJ
2D	2V7	16CLL	4g)
.	.	16c	.
.	.	16B-	.
.	.	16cJJ	.
.	.	16CLL	4e'
.	.	16B-	.
.	.	16G	.
.	.	16B-JJ	.
=202	=202	=202	=202
2T	2I	4F 4A	4f'
.	.	4FF	4r
*-	*-	*-	*-
